X: 42918
T: Will's
R: jig
M: 6/8
K: Amajor
E|ABc def|eBe geg|afe c2 A|def ~B3|
ABc def|eBe geg|afe c2 A|dBG A2:|
|:g|afe cAc|dBd fdf|afe c2 A|def ~B3|
afe cAc|dfB fdf|afe c2 A|dBG A2:|

